X:1
T:Glasgow Peggie (Hielan' Lads)
M:4/4
L:1/4
K:C
 A A D3/2 E/2| Gc/2-B/2 A z| A A D D| cB/2-A/2 c d/2G/2| A A d3/2 e/2|\
 dc/2-A/2 G G| A dc/2-B/2A/2-G/2| AE/2-D/2 C D|
